; generated by PrusaSlicer 2.5.2+win64 on 2023-06-27 at 20:21:00 UTC


;
;
; 

; external perimeters extrusion width = 0.45mm
; perimeters extrusion width = 0.45mm
; infill extrusion width = 0.45mm
; solid infill extrusion width = 0.45mm
; top infill extrusion width = 0.40mm
; first layer extrusion width = 0.42mm

M73 P0 R13
M73 Q0 S13
M201 X1000 Y1000 Z200 E5000 ; sets maximum accelerations, mm/sec^2
M203 X200 Y200 Z12 E120 ; sets maximum feedrates, mm / sec
M204 P1250 R1250 T1250 ; sets acceleration (P, T) and retract acceleration (R), mm/sec^2
M205 X8.00 Y8.00 Z0.40 E4.50 ; sets the jerk limits, mm/sec
M205 S0 T0 ; sets the minimum extruding and travel feed rate, mm/sec
M107
;TYPE:Custom
M862.3 P "MK3S" ; printer model check
M862.1 P0.4 ; nozzle diameter check
M115 U3.11.0 ; tell printer latest fw version
G90 ; use absolute coordinates
M83 ; extruder relative mode
M104 S240 ; set extruder temp
M140 S50 ; set bed temp
M190 S50 ; wait for bed temp
M109 S240 ; wait for extruder temp
G28 W ; home all without mesh bed level
G80 ; mesh bed leveling

G1 Z0.2 F720
G1 Y-3 F1000 ; go outside print area
G92 E0
G1 X60 E9 F1000 ; intro line
G1 X100 E12.5 F1000 ; intro line

G92 E0
M221 S95

; Don't change E values below. Excessive value can damage the printer.

M907 E538 ; set extruder motor current
G21 ; set units to millimeters
G90 ; use absolute coordinates
M83 ; use relative distances for extrusion
M900 K0
M107
;LAYER_CHANGE
;Z:0.35
;HEIGHT:0.35
;BEFORE_LAYER_CHANGE
G92 E0.0
;0.35


G1 E-.4 F2100
G1 Z.35 F720
;AFTER_LAYER_CHANGE
;0.35
G1 X111.354 Y87.328 F10800
G1 E.4 F2100
M204 S800
;TYPE:Skirt/Brim
;WIDTH:0.42
G1 F1200
G1 X111.877 Y86.713 E.047
G1 X112.263 Y86.423 E.0281
G1 X113.271 Y86.016 E.06328
G1 X113.573 Y85.974 E.01774
G1 X136.743 Y85.993 E1.34889
G1 X138.099 Y86.633 E.08729
M73 P1 R13
M73 Q1 S13
G1 X138.526 Y87.066 E.03543
G1 X138.931 Y87.754 E.04647
G1 X140.188 Y93.577 E.34676
G1 X140.064 Y111.887 E1.06599
G1 X139.902 Y112.767 E.05211
G1 X139.303 Y114.454 E.10419
G1 X138.83 Y115.36 E.05948
G1 X138.072 Y116.211 E.06636
G1 X128.662 Y124.197 E.71853
G1 X127.33 Y124.866 E.08676
G1 X126.795 Y125.04 E.03273
G1 X125.605 Y125.252 E.0704
G1 X124.395 Y125.252 E.07041
G1 X123.205 Y125.04 E.0704
G1 X122.67 Y124.866 E.03273
G1 X121.582 Y124.338 E.0704
G1 X120.956 Y123.931 E.04346
G1 X111.792 Y116.081 E.70248
G1 X111.282 Y115.507 E.04468
G1 X110.922 Y114.946 E.03879
G1 X110.132 Y112.875 E.12906
G1 X109.927 Y111.802 E.0636
G1 X109.76 Y94.165 E1.02679
G1 X109.864 Y93.235 E.05448
G1 X110.952 Y88.263 E.29634
G1 X111.33 Y87.383 E.05574
M204 S1000
G1 X111.639 Y87.522 F10800
M204 S800
G1 F1200
G1 X112.106 Y86.97 E.04208
G1 X112.454 Y86.71 E.02528
G1 X113.333 Y86.355 E.05516
G1 X113.651 Y86.314 E.0187
G1 X136.681 Y86.332 E1.34067
G1 X137.871 Y86.891 E.07658
G1 X138.258 Y87.283 E.03206
G1 X138.611 Y87.883 E.04051
G1 X139.845 Y93.613 E.34122
G1 X139.72 Y111.865 E1.0626
G1 X139.575 Y112.657 E.04686
G1 X138.978 Y114.338 E.10387
G1 X138.547 Y115.162 E.05413
G1 X137.847 Y115.949 E.06128
G1 X128.474 Y123.908 E.71588
G1 X127.19 Y124.551 E.08361
M73 Q2 S13
G1 X125.551 Y124.911 E.09769
M73 P2 R13
G1 X124.449 Y124.911 E.06413
G1 X122.81 Y124.551 E.09769
G1 X121.739 Y124.031 E.06935
G1 X121.173 Y123.663 E.03926
G1 X112.025 Y115.826 E.7013
G1 X111.559 Y115.301 E.04083
G1 X111.21 Y114.75 E.03798
G1 X110.456 Y112.758 E.12401
G1 X110.271 Y111.799 E.05686
G1 X110.105 Y94.162 E1.02679
G1 X110.202 Y93.304 E.05027
G1 X111.289 Y88.337 E.29603
G1 X111.616 Y87.577 E.04815
M204 S1000
; printing object wednesday_frog_keychain.stl id:0 copy 0
;WIPE_START
G1 F8640
G1 X112.106 Y86.97 E-.18019
G1 X112.454 Y86.71 E-.10026
G1 X112.854 Y86.549 E-.09955
;WIPE_END
G1 E-.02 F2100
G1 X115.27 Y90.609 F10800
G1 E.4 F2100
M204 S800
;TYPE:Perimeter
;WIDTH:0.42
G1 F1200
G1 X115.393 Y90.728 E.00996
G1 X115.689 Y90.807 E.01783
G1 X115.544 Y91.093 E.01867
G1 X115.511 Y91.419 E.01902
G1 X115.538 Y91.629 E.01234
G1 X115.709 Y92.006 E.02409
G1 X115.598 Y92.01 E.00646
G1 X115.213 Y92.137 E.02363
G1 X114.921 Y92.437 E.02434
G1 X114.775 Y92.693 E.01715
G1 X114.5 Y93.876 E.07071
;WIDTH:0.446491
G1 X114.657 Y94.343 E.03088
;WIDTH:0.466054
G1 X114.774 Y94.518 E.01393
G1 X115.098 Y94.635 E.0227
;WIDTH:0.42
G1 X115.401 Y94.552 E.01831
G1 X115.545 Y95.055 E.03041
G1 X115.711 Y95.314 E.0179
G1 X116.122 Y95.729 E.03403
G1 X116.709 Y96.167 E.04262
G1 X117.266 Y96.615 E.0416
G1 X117.744 Y96.907 E.03264
G1 X118.234 Y97.098 E.03058
G1 X118.765 Y97.184 E.03133
G1 X119.268 Y97.125 E.02948
G1 X119.599 Y96.987 E.02091
G1 X120.298 Y96.607 E.04632
G1 X120.823 Y96.243 E.03715
G1 X121.227 Y95.894 E.0311
G1 X121.737 Y95.496 E.03765
G1 X123.666 Y94.256 E.1335
G1 X124.252 Y93.964 E.0381
G1 X124.745 Y93.774 E.03077
G1 X125.294 Y93.782 E.03201
G1 X125.886 Y94.007 E.03685
G1 X126.514 Y94.357 E.04185
G1 X128.344 Y95.553 E.12725
G1 X129.069 Y96.152 E.05474
G1 X129.472 Y96.449 E.02918
G1 X130.341 Y96.97 E.05896
G1 X130.813 Y97.141 E.02924
G1 X131.18 Y97.189 E.02153
G1 X131.677 Y97.122 E.02921
G1 X132.201 Y96.933 E.03243
G1 X132.842 Y96.532 E.044
G1 X133.792 Y95.785 E.07039
G1 X134.249 Y95.38 E.03554
G1 X134.508 Y94.935 E.02996
G1 X134.616 Y94.436 E.02976
G1 X134.935 Y94.381 E.01881
G1 X135.132 Y94.304 E.01233
G1 X135.403 Y94.03 E.02246
G1 X135.476 Y93.772 E.01559
G1 X135.374 Y93.291 E.02858
G1 X135.16 Y92.538 E.04561
G1 X134.829 Y92.196 E.0277
G1 X134.625 Y92.073 E.01385
G1 X134.282 Y92.006 E.02034
G1 X134.48 Y91.543 E.02932
G1 X134.461 Y91.137 E.02367
G1 X134.305 Y90.795 E.02182
G1 X134.484 Y90.735 E.01097
G1 X134.685 Y90.604 E.01398
G1 X134.872 Y90.383 E.01687
G1 X134.98 Y89.994 E.02345
G1 X135.229 Y90.024 E.01463
G1 X135.664 Y89.849 E.02725
G1 X135.673 Y90.344 E.02882
G1 X135.847 Y90.825 E.02977
G1 X136.251 Y91.479 E.04476
G1 X136.427 Y91.866 E.02473
G1 X136.847 Y93.674 E.10804
G1 X136.786 Y93.933 E.01552
G1 X136.57 Y94.25 E.02232
G1 X136.16 Y94.491 E.0277
G1 X135.962 Y94.671 E.01558
G1 X135.846 Y95.059 E.02356
G1 X135.905 Y95.403 E.02031
G1 X135.626 Y95.627 E.02086
G1 X135.275 Y96.015 E.03042
G1 X135.04 Y96.423 E.0274
G1 X134.922 Y96.938 E.03077
G1 X134.861 Y98.163 E.07142
G1 X134.743 Y98.905 E.04374
G1 X134.582 Y99.522 E.03715
G1 X134.139 Y100.597 E.06769
G1 X134.053 Y101.156 E.03292
G1 X134.029 Y101.705 E.03198
G1 X134.072 Y102.07 E.0214
G1 X134.229 Y102.531 E.02835
G1 X134.54 Y103.157 E.04069
G1 X134.582 Y103.361 E.01213
G1 X134.435 Y103.758 E.02467
G1 X133.79 Y104.626 E.06294
G1 X133.636 Y104.931 E.0199
G1 X133.383 Y105.507 E.03661
G1 X133.242 Y106.174 E.03971
G1 X133.24 Y106.656 E.02806
G1 X133.348 Y107.226 E.03377
G1 X133.829 Y108.495 E.07902
G1 X134.017 Y109.337 E.05023
G1 X134.048 Y109.935 E.03485
G1 X134.211 Y110.423 E.02994
G1 X134.373 Y110.582 E.01323
G1 X134.663 Y110.719 E.01866
G1 X135.032 Y110.681 E.02155
G1 X135.072 Y110.794 E.00698
G1 X135.24 Y111.05 E.01783
G1 X135.505 Y111.239 E.01896
G1 X135.83 Y111.307 E.01932
G1 X136.133 Y111.262 E.01783
G1 X136.166 Y111.276 E.0021
G1 X136.4 Y111.742 E.03039
G1 X136.723 Y111.945 E.02219
G1 X136.456 Y112.447 E.03315
G1 X136.222 Y113.326 E.0529
G1 X135.901 Y113.675 E.02765
G1 X135.632 Y113.854 E.01876
G1 X135.037 Y114.064 E.03677
G1 X134.159 Y114.246 E.0522
G1 X132.538 Y114.362 E.09459
G1 X131.742 Y114.528 E.04733
G1 X131.242 Y114.78 E.03264
G1 X130.442 Y115.424 E.05977
G1 X129.979 Y115.705 E.03149
G1 X129.508 Y115.834 E.02847
G1 X128.842 Y115.898 E.03892
G1 X128.593 Y116.039 E.01665
G1 X128.445 Y116.401 E.02279
G1 X128.445 Y118.561 E.12576
G1 X128.27 Y119.667 E.0652
G1 X127.782 Y120.626 E.06262
G1 X127.02 Y121.388 E.06273
G1 X126.5 Y121.657 E.03409
G1 X125.975 Y121.896 E.03356
G1 X125.002 Y122.043 E.05729
G1 X123.936 Y121.875 E.06283
G1 X123.487 Y121.65 E.0292
G1 X122.958 Y121.375 E.03471
G1 X122.218 Y120.626 E.0613
G1 X121.72 Y119.646 E.06401
G1 X121.555 Y118.563 E.06377
G1 X121.555 Y116.401 E.12589
G1 X121.407 Y116.038 E.0228
G1 X121.275 Y115.941 E.00955
G1 X121.086 Y115.886 E.01144
G1 X120.434 Y115.824 E.03811
G1 X120.003 Y115.694 E.02622
G1 X119.595 Y115.451 E.02764
G1 X118.607 Y114.688 E.0727
G1 X118.014 Y114.455 E.03708
G1 X117.389 Y114.352 E.03685
G1 X115.661 Y114.236 E.10088
G1 X114.794 Y114.021 E.052
G1 X114.255 Y113.782 E.03431
G1 X113.926 Y113.526 E.02427
G1 X113.761 Y113.284 E.01702
G1 X113.537 Y112.428 E.05154
G1 X113.264 Y111.949 E.03209
G1 X113.508 Y111.814 E.01623
G1 X113.768 Y111.53 E.02243
G1 X113.847 Y111.26 E.01634
G1 X113.886 Y111.283 E.00259
G1 X114.207 Y111.345 E.01906
G1 X114.583 Y111.189 E.02366
G1 X114.834 Y110.958 E.01987
G1 X114.993 Y110.671 E.0191
G1 X115.141 Y110.701 E.00879
G1 X115.419 Y110.682 E.01621
G1 X115.754 Y110.449 E.02373
G1 X115.918 Y110.091 E.02294
G1 X116.036 Y109.037 E.06177
G1 X116.168 Y108.502 E.03209
G1 X116.436 Y107.793 E.04406
G1 X116.694 Y107.024 E.04725
G1 X116.769 Y106.383 E.0376
G1 X116.652 Y105.629 E.04442
G1 X116.41 Y104.978 E.04043
G1 X116.144 Y104.533 E.03017
G1 X115.762 Y104.042 E.03621
G1 X115.471 Y103.589 E.03132
M73 Q3 S13
G1 X115.419 Y103.289 E.01772
G1 X115.486 Y103.085 E.01253
G1 X115.819 Y102.408 E.04393
G1 X115.967 Y101.776 E.03778
G1 X115.935 Y101.037 E.04308
G1 X115.821 Y100.456 E.03445
G1 X115.456 Y99.647 E.05166
G1 X115.314 Y99.151 E.03004
M73 P3 R13
G1 X115.155 Y98.334 E.04847
G1 X115.085 Y96.99 E.0783
G1 X114.987 Y96.516 E.02819
G1 X114.728 Y96.014 E.0329
G1 X114.394 Y95.643 E.02906
G1 X114.576 Y95.153 E.03046
;WIDTH:0.447734
G1 X114.539 Y94.882 E.01719
;WIDTH:0.466055
G1 X114.424 Y94.713 E.01347
G1 X114.247 Y94.624 E.0131
;WIDTH:0.431757
G1 X113.721 Y94.43 E.03371
;WIDTH:0.42
G1 X113.505 Y94.303 E.0146
G1 X113.326 Y94.123 E.01477
G1 X113.16 Y93.738 E.02442
G1 X113.192 Y93.499 E.01401
G1 X113.329 Y92.943 E.03335
G1 X113.444 Y92.313 E.03729
G1 X113.67 Y91.624 E.04221
G1 X114.161 Y90.808 E.05543
G1 X114.311 Y90.407 E.0249
G1 X114.354 Y89.905 E.02935
G1 X114.423 Y89.951 E.00481
G1 X114.726 Y90.026 E.01816
G1 X115.01 Y89.987 E.01669
G1 X115.033 Y90.26 E.01599
G1 X115.227 Y90.567 E.02111
M204 S1000
G1 X115.51 Y90.37 F10800
M204 S800
;TYPE:External perimeter
G1 F1200
G1 X115.618 Y90.452 E.00792
G1 X115.891 Y90.466 E.01587
G1 X116.405 Y90.299 E.03148
G1 X116.731 Y90.257 E.01914
G1 X116.982 Y90.273 E.01463
G1 X116.309 Y90.65 E.04493
G1 X116.1 Y90.831 E.01603
G1 X115.898 Y91.13 E.02102
G1 X115.855 Y91.445 E.01855
G1 X115.935 Y91.719 E.01658
G1 X116.139 Y91.993 E.01987
G1 X116.628 Y92.398 E.03697
G1 X116.387 Y92.399 E.01399
G1 X115.685 Y92.352 E.04099
G1 X115.384 Y92.437 E.0182
G1 X115.11 Y92.776 E.02541
G1 X114.846 Y93.841 E.06386
G1 X115.001 Y94.224 E.02408
G1 X115.124 Y94.291 E.00815
G1 X115.664 Y94.027 E.03498
G1 X115.727 Y94.436 E.02411
G1 X115.918 Y95.031 E.03639
G1 X116.29 Y95.421 E.03135
G1 X116.927 Y95.9 E.04639
G1 X117.445 Y96.321 E.0389
G1 X117.924 Y96.613 E.03264
G1 X118.352 Y96.774 E.02664
G1 X118.782 Y96.839 E.02527
G1 X119.219 Y96.783 E.02567
G1 X120.103 Y96.322 E.05805
G1 X120.597 Y95.982 E.03493
G1 X121.002 Y95.633 E.0311
G1 X121.541 Y95.212 E.03983
G1 X123.663 Y93.847 E.14689
G1 X124.477 Y93.487 E.05183
G1 X124.808 Y93.424 E.01958
G1 X125.367 Y93.442 E.03259
G1 X125.767 Y93.582 E.02462
G1 X126.259 Y93.809 E.03155
G1 X126.698 Y94.065 E.02958
G1 X128.27 Y95.093 E.10937
G1 X129.652 Y96.155 E.10146
G1 X130.456 Y96.645 E.05484
G1 X130.93 Y96.817 E.02932
G1 X131.158 Y96.843 E.01334
G1 X131.533 Y96.803 E.02201
G1 X131.985 Y96.656 E.02766
G1 X132.423 Y96.388 E.02987
G1 X133.044 Y95.929 E.04493
G1 X133.586 Y95.508 E.03996
G1 X134.002 Y95.139 E.03238
G1 X134.216 Y94.73 E.02688
G1 X134.306 Y94.202 E.0312
G1 X134.426 Y94.135 E.00799
G1 X134.898 Y94.037 E.02804
G1 X135.107 Y93.854 E.01617
G1 X135.126 Y93.724 E.00761
G1 X134.891 Y92.774 E.05697
G1 X134.588 Y92.443 E.02614
G1 X134.357 Y92.359 E.01433
G1 X133.403 Y92.391 E.05556
G1 X133.939 Y91.889 E.04275
G1 X134.13 Y91.51 E.0247
G1 X134.126 Y91.234 E.01605
G1 X133.994 Y90.945 E.01853
G1 X133.71 Y90.663 E.02329
G1 X133.042 Y90.262 E.04537
G1 X133.6 Y90.295 E.03254
G1 X134.072 Y90.462 E.02914
G1 X134.235 Y90.46 E.00948
G1 X134.509 Y90.305 E.01836
G1 X134.632 Y89.981 E.02017
G1 X134.621 Y89.86 E.00706
G1 X134.325 Y89.245 E.03971
G1 X134.834 Y89.566 E.03501
G1 X135.185 Y89.682 E.02154
G1 X135.613 Y89.481 E.02748
G1 X135.933 Y89.096 E.02912
G1 X136.207 Y88.878 E.02043
G1 X136.008 Y89.742 E.05159
G1 X136.009 Y90.248 E.0295
G1 X136.141 Y90.644 E.02428
G1 X136.545 Y91.298 E.04476
G1 X136.744 Y91.729 E.02765
G1 X137.191 Y93.656 E.11517
G1 X137.142 Y93.936 E.01652
G1 X136.995 Y94.264 E.02092
G1 X136.798 Y94.509 E.01833
G1 X136.282 Y94.822 E.0351
G1 X136.194 Y95.066 E.01512
G1 X136.308 Y95.53 E.02783
G1 X135.977 Y95.782 E.02418
G1 X135.609 Y96.159 E.03067
G1 X135.354 Y96.566 E.02793
G1 X135.257 Y97.032 E.02772
G1 X135.218 Y98.111 E.06287
G1 X135.099 Y98.898 E.04633
G1 X134.976 Y99.41 E.03068
G1 X134.807 Y99.902 E.03025
G1 X134.48 Y100.65 E.04754
G1 X134.394 Y101.209 E.03292
G1 X134.374 Y101.711 E.02925
G1 X134.414 Y102.024 E.01838
G1 X134.538 Y102.378 E.02181
G1 X134.902 Y103.109 E.04758
G1 X134.917 Y103.522 E.02401
G1 X134.734 Y103.933 E.02621
G1 X134.186 Y104.671 E.05351
G1 X133.949 Y105.077 E.02739
G1 X133.72 Y105.578 E.03204
G1 X133.58 Y106.245 E.03971
G1 X133.579 Y106.598 E.02051
G1 X133.67 Y107.104 E.02995
G1 X134.161 Y108.396 E.08046
G1 X134.36 Y109.291 E.05336
G1 X134.391 Y109.892 E.03503
G1 X134.499 Y110.234 E.02089
G1 X134.686 Y110.371 E.01348
G1 X135.073 Y110.324 E.02272
G1 X135.246 Y110.349 E.01018
G1 X135.397 Y110.677 E.02102
G1 X135.51 Y110.836 E.01134
G1 X135.699 Y110.948 E.01276
G1 X135.985 Y110.95 E.01665
G1 X136.313 Y110.74 E.0227
G1 X136.465 Y110.762 E.00891
G1 X136.483 Y111.114 E.02051
G1 X136.675 Y111.534 E.02688
G1 X137.159 Y111.739 E.03058
G1 X137.126 Y111.921 E.01076
G1 X136.76 Y112.609 E.04538
G1 X136.659 Y113.103 E.02937
G1 X136.519 Y113.512 E.02515
G1 X136.126 Y113.939 E.03378
G1 X135.792 Y114.161 E.02335
G1 X135.285 Y114.359 E.03172
G1 X134.564 Y114.532 E.04316
G1 X134.18 Y114.59 E.0226
G1 X132.602 Y114.7 E.09208
G1 X131.919 Y114.83 E.04049
G1 X131.458 Y115.049 E.02972
G1 X130.64 Y115.707 E.0611
G1 X130.117 Y116.024 E.03561
G1 X129.569 Y116.175 E.0331
G1 X128.948 Y116.229 E.03631
G1 X128.839 Y116.28 E.00696
G1 X128.79 Y116.401 E.0076
G1 X128.79 Y118.588 E.12734
G1 X128.602 Y119.775 E.06996
G1 X128.064 Y120.831 E.06898
G1 X127.226 Y121.67 E.06902
G1 X126.568 Y122.01 E.04311
G1 X126.055 Y122.233 E.03258
G1 X125.001 Y122.392 E.06205
G1 X123.829 Y122.207 E.06906
G1 X122.732 Y121.638 E.07192
G1 X121.936 Y120.831 E.066
G1 X121.383 Y119.726 E.07196
G1 X121.21 Y118.589 E.06693
G1 X121.21 Y116.401 E.12741
G1 X121.161 Y116.28 E.0076
G1 X121.054 Y116.229 E.00689
G1 X120.368 Y116.164 E.04011
G1 X119.863 Y116.012 E.03069
G1 X119.398 Y115.736 E.03149
G1 X118.474 Y115.006 E.06855
G1 X117.957 Y114.795 E.03251
G1 X117.363 Y114.696 E.03506
G1 X115.598 Y114.576 E.10301
G1 X114.681 Y114.348 E.05497
G1 X114.077 Y114.08 E.03851
G1 X113.795 Y113.861 E.02079
G1 X113.509 Y113.556 E.02434
G1 X113.357 Y113.153 E.02502
G1 X113.237 Y112.599 E.03305
G1 X112.956 Y112.106 E.03301
G1 X112.834 Y111.716 E.0238
G1 X113.163 Y111.624 E.01991
G1 X113.384 Y111.447 E.01646
G1 X113.5 Y111.273 E.01217
G1 X113.55 Y110.747 E.03074
G1 X113.651 Y110.741 E.00591
G1 X114.13 Y111.004 E.0318
G1 X114.43 Y110.88 E.01887
G1 X114.57 Y110.736 E.01173
G1 X114.776 Y110.336 E.02617
G1 X114.843 Y110.313 E.00413
G1 X115.249 Y110.367 E.02385
G1 X115.456 Y110.258 E.01364
G1 X115.594 Y109.973 E.01843
G1 X115.697 Y108.977 E.05831
G1 X115.841 Y108.393 E.035
G1 X116.353 Y106.974 E.08781
G1 X116.427 Y106.426 E.03219
G1 X116.328 Y105.746 E.04
G1 X116.043 Y105.033 E.04474
G1 X115.219 Y103.837 E.08454
G1 X115.087 Y103.523 E.01981
G1 X115.089 Y103.179 E.02003
G1 X115.179 Y102.928 E.01552
G1 X115.487 Y102.318 E.0398
G1 X115.622 Y101.788 E.03179
G1 X115.595 Y101.094 E.04046
G1 X115.506 Y100.596 E.02945
G1 X115.132 Y99.766 E.05301
G1 X114.978 Y99.232 E.03236
G1 X114.811 Y98.376 E.05077
G1 X114.711 Y96.814 E.0911
G1 X114.64 Y96.596 E.01334
G1 X114.391 Y96.129 E.03082
G1 X113.943 Y95.729 E.03492
G1 X113.988 Y95.683 E.00373
G1 X114.214 Y95.192 E.0315
